icons/midnadark/actions/24/office-chart-area-percentage.svg

<?xml version="1.0" encoding="UTF-8" standalone="no"?>
<!-- Created with Inkscape (http://www.inkscape.org/) -->

<svg
   xmlns:dc="http://purl.org/dc/elements/1.1/"
   xmlns:cc="http://creativecommons.org/ns#"
   xmlns:rdf="http://www.w3.org/1999/02/22-rdf-syntax-ns#"
   xmlns:svg="http://www.w3.org/2000/svg"
   xmlns="http://www.w3.org/2000/svg"
   xmlns:xlink="http://www.w3.org/1999/xlink"
   xmlns:sodipodi="http://sodipodi.sourceforge.net/DTD/sodipodi-0.dtd"
   xmlns:inkscape="http://www.inkscape.org/namespaces/inkscape"
   width="24"
   height="24"
   id="svg3869"
   version="1.1"
   inkscape:version="0.91 r13725"
   sodipodi:docname="office-chart-area-percentage.svg">
  <defs
     id="defs3871">
    <clipPath
       id="clipPath4160"
       clipPathUnits="userSpaceOnUse">
      <rect
         y="1023.3622"
         x="7"
         height="1"
         width="1"
         id="rect4162"
         style="opacity:1;fill:#f2f2f2;fill-opacity:1;stroke:none;stroke-opacity:1" />
    </clipPath>
    <linearGradient
       gradientTransform="translate(0,-1.9999941)"
       inkscape:collect="always"
       xlink:href="#linearGradient4021-3"
       id="linearGradient4123"
       gradientUnits="userSpaceOnUse"
       x1="3"
       y1="1045.3622"
       x2="15"
       y2="1045.3622" />
    <linearGradient
       id="linearGradient4021-3">
      <stop
         id="stop4023-0"
         offset="0"
         style="stop-color:#b3b3b3;stop-opacity:1;" />
      <stop
         id="stop4025-2"
         offset="1"
         style="stop-color:#4d4d4d;stop-opacity:1;" />
    </linearGradient>
    <clipPath
       id="clipPath4160-8"
       clipPathUnits="userSpaceOnUse">
      <rect
         y="1023.3622"
         x="7"
         height="1"
         width="1"
         id="rect4162-9"
         style="opacity:1;fill:#f2f2f2;fill-opacity:1;stroke:none;stroke-opacity:1" />
    </clipPath>
  </defs>
  <sodipodi:namedview
     id="base"
     pagecolor="#ffffff"
     bordercolor="#666666"
     borderopacity="1.0"
     inkscape:pageopacity="0.0"
     inkscape:pageshadow="2"
     inkscape:zoom="22.627416"
     inkscape:cx="15.561475"
     inkscape:cy="10.286893"
     inkscape:document-units="px"
     inkscape:current-layer="layer1"
     showgrid="true"
     fit-margin-top="0"
     fit-margin-left="0"
     fit-margin-right="0"
     fit-margin-bottom="0"
     inkscape:window-width="1366"
     inkscape:window-height="633"
     inkscape:window-x="0"
     inkscape:window-y="33"
     inkscape:window-maximized="1"
     inkscape:showpageshadow="false"
     inkscape:snap-bbox="true"
     inkscape:object-nodes="true">
    <inkscape:grid
       type="xygrid"
       id="grid4132" />
    <sodipodi:guide
       position="4,18"
       orientation="18,0"
       id="guide4138" />
    <sodipodi:guide
       position="5,3"
       orientation="0,18"
       id="guide4140" />
    <sodipodi:guide
       position="20,2.0000174"
       orientation="-18,0"
       id="guide4142" />
    <sodipodi:guide
       position="2,21"
       orientation="0,-18"
       id="guide4144" />
    <sodipodi:guide
       position="3,19.000017"
       orientation="16,0"
       id="guide4146" />
    <sodipodi:guide
       position="2,4"
       orientation="0,16"
       id="guide4148" />
    <sodipodi:guide
       position="21,20"
       orientation="-16,0"
       id="guide4150" />
    <sodipodi:guide
       position="2,20"
       orientation="0,-16"
       id="guide4152" />
  </sodipodi:namedview>
  <metadata
     id="metadata3874">
    <rdf:RDF>
      <cc:Work
         rdf:about="">
        <dc:format>image/svg+xml</dc:format>
        <dc:type
           rdf:resource="http://purl.org/dc/dcmitype/StillImage" />
        <dc:title />
      </cc:Work>
    </rdf:RDF>
  </metadata>
  <g
     inkscape:label="Capa 1"
     inkscape:groupmode="layer"
     id="layer1"
     transform="translate(-326,-532.3622)">
    <g
       transform="translate(-224.28571,-74.28568)"
       id="layer1-6"
       inkscape:label="Capa 1">
      <path
         sodipodi:nodetypes="cccccccccccccccccccccccccccccccccccccccccccccccccccccccccccccccccccccccccc"
         inkscape:connector-curvature="0"
         id="rect4144"
         transform="translate(551.28571,607.64788)"
         d="M 4,3 4,6.9921875 4,8 l 0,7 0,1 0,1 -1,0 0,1 1,0 0,1 1,0 0,-1 14,0 0,-1 L 5,17 5,16 5.00781,16 6,16 8,16 8,15.9922 8.00781,16 l 1.999999,-2 1.591797,0 2,2 3.5,0 L 19,16 l 0,-1 -1.900391,0 -3.085937,0 -2,-2 L 12,13 l -0.992188,0 -0.408203,0 -1.005859,0 -2,2 L 6,15 5.0078125,15 5,15 5,12 5,11 5,10 5,8 5.0078125,8 6,8 l 1.5878906,0 1.7070313,1.7070312 0.8281251,0.8281248 2,2 0.002,-0.002 0.002,0.002 2.126953,-2.125 1.296875,1.296875 0.828125,0.828125 1.041016,1.041016 0.707031,-0.707031 L 17.085938,11.828125 16.257812,11 l -2,-2 -0.0039,0.00391 L 14.248047,9 12.125,11.123047 10.830078,9.828125 10.001953,9 8.0019531,7 8,7 6,7 6,6.99219 l -1,0 L 5,6 12,6 12,5 5,5 5,3 Z"
         style="opacity:1;fill:#ffffff;fill-opacity:1;stroke:none;stroke-width:2.79999995;stroke-miterlimit:4;stroke-dasharray:none;stroke-opacity:0.55026455" />
      <path
         sodipodi:nodetypes="ccccccccc"
         inkscape:connector-curvature="0"
         id="path4149"
         d="m 556.28571,623.64791 0,1 14,0 0,-1 -5.4,0 -2,-2 -1.6,0 -2,2 z"
         style="fill:#4d4d4d;fill-opacity:0.45882353;fill-rule:evenodd;stroke:none;stroke-width:1px;stroke-linecap:butt;stroke-linejoin:miter;stroke-opacity:1" />
      <path
         id="path4150"
         transform="translate(551.28571,607.64788)"
         d="m 5,8 0,2 0,1 0,1 0,3 0.00781,0 2.5859375,0 2,-2 0.40625,0 1.9999995,-0.0078 0.0078,0.0078 0.0059,0 1.992187,1.992188 1.996094,0.0059 L 17,14 18.021484,12.978516 c -7.74e-4,-9.28e-4 -0.0012,-0.001 -0.002,-0.002 l -0.599609,0.59961 -1.041016,-1.041016 -0.828125,-0.828125 -1.296875,-1.296875 -2.126953,2.125 -0.002,-0.002 -0.002,0.002 -2,-2 L 9.2949219,9.7070312 7.5878906,8 5.0078125,8 5,8 Z"
         style="fill:#4d4d4d;fill-opacity:0.45882353;fill-rule:evenodd;stroke:none;stroke-width:1px;stroke-linecap:butt;stroke-linejoin:miter;stroke-opacity:1"
         inkscape:connector-curvature="0" />
      <path
         id="rect4164"
         transform="translate(551.28571,607.64788)"
         d="m 5.0078125,6 0,1 L 8,7 12,11 12,7 12,6 5.0078125,6 Z"
         style="opacity:1;fill:#4d4d4d;fill-opacity:0.45882353;stroke:none;stroke-width:2.79999995;stroke-miterlimit:4;stroke-dasharray:none;stroke-opacity:0.55026455"
         inkscape:connector-curvature="0" />
      <path
         id="rect3374"
         transform="translate(551.28571,607.64788)"
         d="m 12,3 0,1 1,0 0,3 1,0 0,-4 -1,0 -1,0 z m 4.5,0 C 15.669,3 15,3.669 15,4.5 l 0,1 C 15,6.331 15.669,7 16.5,7 17.331,7 18,6.331 18,5.5 l 0,-1 C 18,3.669 17.331,3 16.5,3 Z m 4,0 C 19.669,3 19,3.669 19,4.5 l 0,1 C 19,6.331 19.669,7 20.5,7 21.331,7 22,6.331 22,5.5 l 0,-1 C 22,3.669 21.331,3 20.5,3 Z m -4,1 C 16.777,4 17,4.223 17,4.5 l 0,1 C 17,5.777 16.777,6 16.5,6 16.223,6 16,5.777 16,5.5 l 0,-1 C 16,4.223 16.223,4 16.5,4 Z m 4,0 C 20.777,4 21,4.223 21,4.5 l 0,1 C 21,5.777 20.777,6 20.5,6 20.223,6 20,5.777 20,5.5 l 0,-1 C 20,4.223 20.223,4 20.5,4 Z"
         style="fill:#ffffff;fill-opacity:1;stroke:none"
         inkscape:connector-curvature="0" />
    </g>
  </g>
</svg>

<svg xmlns="http://www.w3.org/2000/svg" viewBox="0 0 24 24"><defs><clipPath><path fill="#f2f2f2" d="m7 1023.36h1v1h-1z"/></clipPath><clipPath><path fill="#f2f2f2" d="m7 1023.36h1v1h-1z"/></clipPath></defs><g transform="translate(-550.29-606.65)"><path transform="translate(551.29 607.65)" d="m4 3v3.992 1.01 7 1 1h-1v1h1v1h1v-1h14v-1h-14v-1h.008.992 2v-.008l.008.008 2-2h1.592l2 2h3.5 1.9v-1h-1.9-3.086l-2-2h-.014-.992-.408-1.01l-2 2h-1.594-.992-.008v-3-1-1-2h.008.992 1.588l1.707 1.707.828.828 2 2 .002-.002.002.002 2.127-2.125 1.297 1.297.828.828 1.041 1.041.707-.707-1.041-1.041-.828-.828-2-2-.004.004-.006-.004-2.123 2.123-1.295-1.295-.828-.828-2-2h-.002-2v-.008h-1v-.992h7v-1h-7v-2" fill="#fff"/><g fill="#4d4d4d" fill-opacity=".459"><g fill-rule="evenodd"><path d="m556.29 623.65v1h14v-1h-5.4l-2-2h-1.6l-2 2z"/><path transform="translate(551.29 607.65)" d="m5 8v2 1 1 3h.008 2.586l2-2h.406l2-.008.008.008h.006l1.992 1.992 1.996.006.998-.998 1.021-1.021c-.0001-.0001-.0001-.0001-.002-.002l-.6.6-1.041-1.041-.828-.828-1.297-1.297-2.127 2.125-.002-.002-.002.002-2-2-.828-.828-1.707-1.707h-2.58-.008"/></g><path transform="translate(551.29 607.65)" d="m5.01 6v1h2.992l4 4v-4-1h-6.992"/></g><path transform="translate(551.29 607.65)" d="m12 3v1h1v3h1v-4h-1-1m4.5 0c-.831 0-1.5.669-1.5 1.5v1c0 .831.669 1.5 1.5 1.5.831 0 1.5-.669 1.5-1.5v-1c0-.831-.669-1.5-1.5-1.5m4 0c-.831 0-1.5.669-1.5 1.5v1c0 .831.669 1.5 1.5 1.5.831 0 1.5-.669 1.5-1.5v-1c0-.831-.669-1.5-1.5-1.5m-4 1c.277 0 .5.223.5.5v1c0 .277-.223.5-.5.5-.277 0-.5-.223-.5-.5v-1c0-.277.223-.5.5-.5m4 0c.277 0 .5.223.5.5v1c0 .277-.223.5-.5.5-.277 0-.5-.223-.5-.5v-1c0-.277.223-.5.5-.5" fill="#fff"/></g></svg>
